X: 5092
T: Bridge Of Athlone, The
R: jig
M: 6/8
K: Dmajor
|:F|A2A ABc|d2A FDF|A2G EFG|B2A FDF|
A2A ABc|dfd A2F|GBA GFE|D3 D2:|
|:A|f2d AFA|f2d AFA|g2e cde|dcB A2A|
f2d AFA|f2d A2A|Aef gec|d3 d2:|
|:B|AFA d2z|dfd A2z|g2f e2d|cec A2z|
AFA d2z|dfd A2z|gfe cde|d3 d2:|

